assets/nunjucks/mono.svg

<svg viewBox="0 0 24 24" xmlns="http://www.w3.org/2000/svg"><path d="m0 12v12h24v-24h-24zm8.2-1.9v-7.1h3v17.3h-3c-.7-2.5-1.4-5-2.2-7.5v7.5h-3v-17.3h3c.8 2.3 1.5 4.7 2.2 7.1zm12.7-3.1v11.6c0 .2-.1.7-.5 1.1s-.8.5-.9.6h-5.1c-.2 0-.7-.1-1-.5-.4-.4-.5-.9-.6-1.2v-3.8c1-.2 2-.5 3-.7v3.1h2.1v-10.2zm-20.9 17"/></svg>

<svg xmlns="http://www.w3.org/2000/svg" viewBox="0 0 24 24"><path d="M0 12v12h24V0H0zm8.2-1.9V3h3v17.3h-3c-.7-2.5-1.4-5-2.2-7.5v7.5H3V3h3c.8 2.3 1.5 4.7 2.2 7.1M20.9 7v11.6c0 .2-.1.7-.5 1.1s-.8.5-.9.6h-5.1c-.2 0-.7-.1-1-.5-.4-.4-.5-.9-.6-1.2v-3.8c1-.2 2-.5 3-.7v3.1h2.1V7zM0 24"/></svg>
